X:0136
T:The Wonder
M:2/4
L:1/16
Q:1/4=104
I: :: ::
Z:Jack Campin * www.campin.me.uk * 2009
K:G
G2G2 G2(GA)| B2B2   B2(Bc)| d2`(Bd)  c2(Ac)| B2(GB)  AFD2 |
G2G2 G2(GA)| B2B2   B2(Bc)|(dg``fe) (dc`BA)| G2`G2   G4  :|
d3`e dB`G2 |(AGAB) (AF`D2)| d3```e  (dB)G2 |(D2`AB) (cBAB)|
G2G2 G2(GA)| B2B2   B2(Bc)|(dB)(dB) (ec)ec |(dc`BA)  G4  :|

